teeny/solid/laptop.svg

<svg width="15" height="15" viewBox="0 0 15 15" fill="none" xmlns="http://www.w3.org/2000/svg">
<path d="M2.5 1C1.67157 1 1 1.67157 1 2.5L1 10.5C1 11.3284 1.67157 12 2.5 12H12.5C13.3284 12 14 11.3284 14 10.5V2.5C14 1.67157 13.3284 1 12.5 1H2.5Z" fill="black"/>
<path d="M0 14H15V13H0V14Z" fill="black"/>
</svg>

<svg viewBox="0 0 15 15" xmlns="http://www.w3.org/2000/svg"><g><path d="M2.5 1C1.67 1 1 1.67 1 2.5v8c0 .82.67 1.5 1.5 1.5h10c.82 0 1.5-.68 1.5-1.5v-8c0-.83-.68-1.5-1.5-1.5h-10Z"/><path d="M0 14h15v-1H0v1Z"/></g></svg>
